X: 16340
T: Guid Man, The
R: reel
M: 4/4
K: Dmajor
|"D"A4-Ad ed|:"D"f4 fe f a-|ab"Em"g3f fe|"G"B4 "Bm"dc de|"A" ~c2BA "D"Ad ed|
"D"f2f2 fe f a-|ab"G"g3f fe|"Em" B3d "A"(3cBA ef|1 "D"d4 Ad ed:|2 "D"d3e fe ed||
"D" A4 fe ed|"G"g2g3f ga-|"Bm" a B3 dc de|"A"~c2 BA "D"fe ed|A4 fe ed|
"G"g4-g Bcd-|d e"A"c3B cd|ef "Em"g/f/e "D"fe ed|A2 f3 eed|"G"g4-g fga-|"Bm"a B2d2"A"cde-|
"D" ef/e/d e fa ed|A2 f3 eed|"G"g4-g Bcd-|de "A"c3 Bc d|1 ef ed "D"Ad ed|2 ef ed2 "Bm"B3-|-B4-B4||

